img/decorate-boy.svg

<svg width="118" height="133" viewBox="0 0 118 133" fill="none" xmlns="http://www.w3.org/2000/svg">
<path d="M57.0935 25.9732C55.0531 24.9294 52.3865 25.8239 51.3569 27.844C50.9865 28.5705 51.95 29.4451 52.5441 28.7629C53.4492 27.7235 54.869 27.0988 56.2249 27.603C57.7252 28.1614 58.2367 29.863 57.7593 31.2916C57.4275 32.2823 58.9642 32.6891 59.3092 31.7206C60.0688 29.5921 59.1329 27.0159 57.0935 25.9732Z" fill="#8DD9E5"/>
<path d="M80.0332 33.7903C77.5012 33.0826 74.4951 34.9336 74.5094 37.69C74.5116 38.1301 75.1399 38.328 75.3582 37.9211C76.1056 36.5235 77.5861 35.2675 79.2837 35.6113C81.1213 35.9828 81.7408 37.9443 81.431 39.5796C81.2624 40.4786 82.5499 41.1884 83.0074 40.2475C84.2078 37.7785 82.6634 34.5256 80.0332 33.7903Z" fill="#8DD9E5"/>
<path d="M64.6667 36.4352C64.1541 36.3899 64.9919 36.4264 64.411 36.38C64.2423 36.3656 64.1178 36.3601 63.948 36.4021C63.6537 36.4784 63.3704 36.6553 63.1389 36.8455C62.6506 37.2435 62.3353 37.793 62.203 38.4089C61.934 39.6572 62.3143 41.0946 63.5093 41.7038C63.8885 41.8984 64.2357 41.8221 64.5554 41.5689C65.4163 40.8878 64.023 40.0796 63.9447 39.3642C63.9017 38.9772 64.0108 38.567 64.1861 38.2231C64.3382 37.9246 64.6127 37.751 64.7968 37.5022L64.9357 37.4304C65.466 37.1904 65.1341 36.4762 64.6667 36.4352Z" fill="#8DD9E5"/>
<path d="M67.4349 44.0898C63.6472 43.6497 60.3787 42.742 57.1875 40.5505C56.7697 40.2641 56.278 40.9109 56.6484 41.2526C59.5255 43.9162 63.4499 45.7085 67.4349 45.4885C68.3498 45.4376 68.3134 44.1915 67.4349 44.0898Z" fill="#8DD9E5"/>
<path d="M113.256 42.3495C111.409 43.0903 109.833 42.2445 108.534 41.047C108.583 40.9331 108.647 40.8248 108.693 40.7109C108.931 40.1127 108.474 39.6693 107.95 39.5787C107.734 37.9644 107.962 36.3987 109.751 35.4666C111.773 34.4118 114.517 35.2632 115.24 37.5033C115.834 39.3421 115.129 41.5999 113.256 42.3495ZM75.8035 48.4894C62.3946 51.6738 47.4016 44.3552 46.5197 29.455C46.2474 24.8576 47.3244 20.6858 49.3131 16.9973C54.0168 18.3053 58.7745 18.4159 63.5322 17.7005C62.4188 18.9853 61.2382 19.997 59.5979 21.1425C58.8715 21.65 58.8935 22.8873 59.8559 23.1283C66.5317 24.7979 72.9628 24.7083 79.2914 22.6429C78.2066 23.6657 76.9279 24.4684 75.4464 25.0069C74.3848 25.3916 74.3815 26.7936 75.4464 27.1795C81.5137 29.3787 87.6736 29.5612 93.7894 27.5566C92.9384 37.3927 85.8018 46.1155 75.8035 48.4894ZM79.8106 59.2665C77.0227 58.6838 74.225 58.1332 71.4019 57.7694C71.403 55.9461 71.3864 54.1218 71.3357 52.2952C72.8239 52.2067 74.3131 52.0121 75.7881 51.6959C77.0216 51.4316 78.2177 51.0811 79.3751 50.6599C79.6264 53.5678 80.0354 56.3243 79.8106 59.2665ZM66.1139 86.7293C59.922 86.0681 53.8635 84.6929 48.0299 82.4673C42.0144 80.1695 34.0059 76.7253 29.5204 71.9089C28.5129 70.8276 28.0697 71.1847 28.4644 69.7595C28.6727 69.0098 32.2697 66.4667 32.8793 65.915C35.0531 63.9513 37.1707 61.9301 39.2222 59.8415C43.4982 55.484 48.0189 50.8965 50.9919 45.5085C55.5942 49.688 61.8368 52.0586 68.3318 52.3228C68.6526 63.8673 67.924 75.3277 66.1139 86.7293ZM40.0048 44.5277C41.8645 42.4192 43.8189 40.3914 45.6565 38.2574C46.7269 40.5661 48.1468 42.6215 49.851 44.3962C48.4819 45.598 47.169 46.8685 45.8814 48.1665C44.1 46.7457 42.0563 45.566 40.0048 44.5277ZM64.4968 3.14302C64.6555 3.44377 64.9586 3.65606 65.4415 3.62178C77.2994 2.76708 89.8794 7.06046 93.1677 19.9152C93.5888 21.5626 93.8137 23.2145 93.8655 24.8498L93.6042 24.914C88.5797 26.6853 83.79 27.0214 78.8306 25.8195C80.7663 24.6176 82.2566 23.01 83.4494 20.7876C83.9939 19.7714 82.9269 18.8415 81.9579 19.2916C75.7947 22.1475 69.1994 23.0033 62.6415 21.5892C64.3391 20.2004 65.7468 18.6138 67.0222 16.691C67.5624 15.8772 66.6717 14.8633 65.7986 15.0944C60.3872 16.5251 55.4476 16.5716 49.9954 15.8263C53.3113 10.3853 58.6279 6.0753 64.4968 3.14302ZM50.4826 127.612C50.9313 127.616 51.3744 127.681 51.8088 127.805C53.1106 127.988 53.352 128.544 52.5308 129.476C51.9796 130.743 51.8253 130.597 50.6315 130.562C49.7738 130.537 48.9217 130.435 48.0828 130.259C46.8901 130.009 45.769 129.585 44.692 129.045C44.7703 128.926 44.8353 128.789 44.8772 128.624C46.1196 128.229 47.3365 127.816 48.6615 127.67C49.2634 127.603 49.8785 127.574 50.4826 127.612ZM7.03143 112.723C5.97208 112.307 3.44108 111.196 3.02991 110.029C2.71574 109.134 3.73871 109.57 4.31634 109.773C5.08027 110.041 5.78246 110.404 6.46592 110.833C7.62558 111.557 8.50636 112.485 9.44005 113.422C8.62541 113.23 7.8163 113.03 7.03143 112.723ZM30.9281 12.2063C29.4432 11.6358 28.3497 10.3941 28.364 8.69356C28.3828 6.52752 30.3736 5.02821 32.2939 4.52733C34.8194 3.86834 37.5642 4.72747 37.0571 7.83776C36.6206 10.5224 34.5206 12.7282 31.7097 11.6358C31.2323 11.4511 30.9446 11.8105 30.9281 12.2063ZM117.441 36.1499C115.95 32.8329 111.66 31.6343 108.544 33.3957C106.156 34.7435 104.594 38.4752 105.754 41.1178C102.606 44.2624 99.9637 47.4854 95.907 49.8262C91.7181 52.2421 87.2238 53.2991 82.5653 54.2246C82.4925 52.6402 82.2666 51.0811 81.7827 49.6493C92.4876 44.5322 98.9925 32.7356 96.6544 20.5034C94.3163 8.26676 80.7861 -2.287 68.258 0.430772C68.1345 0.350057 67.9703 0.314668 67.7751 0.354472C53.33 3.33098 41.7256 15.9756 43.6999 31.4342C43.9082 33.0706 44.2874 34.6097 44.7868 36.0726L44.5608 36.2472C43.7782 37.1517 42.9801 38.0573 42.172 38.9529C42.1467 38.7472 42.0794 38.536 41.913 38.3293C35.6384 30.5651 33.0567 23.5319 32.7128 13.6426C35.8776 14.6267 38.7658 11.2289 39.3269 7.83001C39.8307 4.78053 38.4615 1.73105 33.7402 1.84826C30.2954 1.9356 26.5055 4.18568 25.9951 7.84992C25.5972 10.7048 27.4436 14.0981 30.4254 14.3834C29.1588 23.5529 33.1934 34.1531 40.405 39.8407C40.6409 40.0276 40.8867 40.0961 41.1193 40.1017C39.8031 41.497 38.4263 42.8305 36.9315 44.0058C36.2337 44.5554 36.5412 45.7031 37.2005 46.1044C39.425 47.4545 41.8413 48.8454 44.3293 49.7598C40.2837 53.9858 36.4564 58.4704 32.1737 62.4454C28.8193 65.5579 21.8558 68.9678 26.6697 73.4657C27.0589 73.8284 27.4689 74.1723 27.8713 74.5228C24.3625 78.2855 21.3013 82.4574 18.2489 86.5947C16.5634 88.879 11.1178 94.0127 11.2567 96.966C11.3658 99.2867 14.7324 101.224 16.4168 102.386C17.1135 102.867 17.83 103.304 18.5587 103.716C16.9195 105.136 15.503 106.839 14.0501 108.436C13.0106 109.579 11.6558 110.731 10.6096 112.003C8.24952 109.294 1.82613 104.588 0.179229 108.537C-0.722491 110.699 1.9926 112.63 3.55132 113.579C5.47932 114.755 7.83173 115.55 10.107 115.323C10.3781 115.424 10.6945 115.427 11.023 115.243C13.0613 114.103 14.5891 111.692 16.0839 109.92C17.5125 108.225 19.004 106.476 20.0733 104.519C22.5448 105.733 25.1694 106.592 27.9077 107.089C28.2681 107.155 28.5746 107.072 28.8248 106.916C29.0299 106.957 29.2492 106.919 29.4311 106.738C32.0845 104.074 34.8062 100.969 36.8422 97.7997C37.4672 96.8243 36.0408 95.7277 35.2438 96.5635C32.9222 98.9995 30.7991 101.962 28.9692 104.857C28.8546 104.782 28.7333 104.711 28.5713 104.673C25.2918 103.853 22.1314 102.792 19.2443 100.982C17.9116 100.145 15.1667 98.8742 14.7942 97.4813C14.3918 95.9709 15.5912 95.0099 16.7861 93.348C20.9838 87.5081 25.391 81.6977 28.8579 75.3786C38.0371 82.955 50.2544 87.3927 62.022 89.2219C59.2386 96.706 57.1739 104.928 55.3032 112.735H55.3021C50.9809 112.845 45.3225 112.687 41.558 110.168C39.5749 108.839 40.782 107.316 41.4224 105.198C42.1434 102.817 42.8588 100.445 43.3659 98.0095C44.9973 98.0795 46.62 97.8307 48.1181 97.1781C48.9967 96.7967 48.5657 95.2557 47.6242 95.3507C41.7278 95.9441 37.1542 94.9469 33.1846 90.1816C32.5805 89.4561 31.4594 90.3859 31.9059 91.1711C33.8052 94.5103 37.5466 97.0343 41.4908 97.7897C40.3069 100.588 39.3622 103.483 38.4263 106.374C37.852 108.143 36.9844 109.98 38.585 111.409C40.2892 112.93 43.3835 113.765 45.6025 114.312C44.2257 118.716 43.2722 123.393 42.3969 127.923C42.3495 128.165 42.3705 128.385 42.4289 128.582C41.8204 129.052 41.6187 130.096 42.4862 130.59C45.2355 132.159 56.1575 135.7 55.7695 129.358C55.4729 124.543 49.291 124.849 45.3953 126.418C46.2904 122.566 47.1183 118.631 47.611 114.736C50.1277 115.2 52.7039 115.355 55.247 115.108C55.6637 115.5 56.3714 115.577 56.6491 114.932C60.0311 107.089 63.1728 98.0419 64.4185 89.5588C65.4095 89.6841 66.3972 89.7955 67.375 89.8841C67.9703 89.938 68.7264 89.3809 68.8279 88.7762C70.4252 79.1234 71.2762 69.4267 71.3853 59.6734C74.4036 60.5956 77.4923 61.291 80.5679 61.9843C81.1676 62.1203 82.0031 61.8052 82.1078 61.1075C82.3658 59.397 82.5709 57.5218 82.5907 55.6432C91.5186 56.1474 103.056 50.8379 107.677 42.7642C109.131 44.7334 112.479 45.294 114.586 44.4172C117.708 43.1191 118.764 39.09 117.441 36.1499Z" fill="#8DD9E5"/>
</svg>

<svg width="118" height="133" viewBox="0 0 118 133" fill="none" xmlns="http://www.w3.org/2000/svg"><path d="M57.093 25.973c-2.04-1.044-4.707-.15-5.736 1.871-.37.726.593 1.601 1.187.919.905-1.04 2.325-1.664 3.68-1.16 1.501.558 2.013 2.26 1.535 3.689-.331.99 1.205 1.397 1.55.429.76-2.129-.176-4.705-2.215-5.748zm22.94 7.817c-2.532-.707-5.538 1.144-5.524 3.9.003.44.63.638.85.231.747-1.398 2.227-2.654 3.925-2.31 1.837.372 2.457 2.333 2.147 3.969-.169.899 1.119 1.608 1.576.668 1.2-2.47-.344-5.722-2.974-6.458zm-15.366 2.645c-.513-.045.325-.009-.256-.055a1.283 1.283 0 00-.463.022c-.294.076-.578.253-.81.444a2.73 2.73 0 00-.935 1.563c-.269 1.248.111 2.686 1.306 3.295.38.194.727.118 1.046-.135.861-.681-.532-1.49-.61-2.205-.043-.387.066-.797.241-1.14.152-.3.427-.473.61-.722l.14-.072c.53-.24.198-.954-.27-.995zm2.768 7.655c-3.788-.44-7.056-1.348-10.248-3.54-.417-.286-.909.36-.539.703 2.877 2.663 6.802 4.456 10.787 4.236.915-.051.878-1.297 0-1.4z" fill="#8DD9E5"/><path d="M113.256 42.35c-1.847.74-3.423-.105-4.722-1.303.049-.114.113-.222.159-.336.238-.598-.219-1.042-.743-1.132-.216-1.615.012-3.18 1.801-4.112 2.022-1.055 4.766-.204 5.489 2.036.594 1.84-.111 4.097-1.984 4.846zm-37.453 6.14c-13.408 3.184-28.401-4.135-29.283-19.035-.273-4.597.804-8.77 2.793-12.458 4.704 1.308 9.462 1.419 14.22.704-1.114 1.284-2.295 2.296-3.935 3.441-.727.508-.704 1.745.258 1.986 6.676 1.67 13.107 1.58 19.435-.485a11.061 11.061 0 01-3.845 2.364c-1.061.385-1.064 1.787 0 2.172 6.068 2.2 12.228 2.382 18.343.378-.85 9.836-7.987 18.558-17.986 20.932zm4.008 10.776c-2.788-.582-5.586-1.133-8.41-1.497.002-1.823-.015-3.647-.065-5.474a29.624 29.624 0 004.452-.6 27.07 27.07 0 003.587-1.035c.251 2.908.66 5.664.436 8.607zM66.114 86.73c-6.192-.66-12.25-2.036-18.084-4.262-6.016-2.297-14.024-5.742-18.51-10.558-1.007-1.081-1.45-.724-1.056-2.15.209-.75 3.806-3.292 4.415-3.844a147.1 147.1 0 006.343-6.074c4.276-4.357 8.797-8.944 11.77-14.333 4.602 4.18 10.845 6.55 17.34 6.815a185.935 185.935 0 01-2.218 34.406zm-26.11-42.201c1.86-2.109 3.815-4.137 5.653-6.27a22.5 22.5 0 004.194 6.138 79.393 79.393 0 00-3.97 3.77c-1.781-1.42-3.825-2.6-5.876-3.638zM64.498 3.143c.159.3.462.513.945.479C77.3 2.767 89.88 7.06 93.169 19.915c.42 1.648.646 3.3.697 4.935l-.26.064c-5.025 1.771-9.815 2.107-14.774.905 1.935-1.201 3.426-2.809 4.618-5.031.545-1.017-.522-1.947-1.491-1.496-6.163 2.855-12.759 3.711-19.316 2.297 1.697-1.389 3.105-2.975 4.38-4.898.54-.814-.35-1.828-1.223-1.597-5.412 1.431-10.351 1.478-15.804.732 3.316-5.44 8.633-9.75 14.502-12.683zM50.483 127.612c.448.004.891.069 1.326.193 1.302.183 1.543.739.722 1.671-.551 1.267-.706 1.121-1.9 1.086a14.46 14.46 0 01-2.548-.303c-1.193-.25-2.314-.674-3.391-1.214.078-.119.143-.256.185-.421 1.243-.395 2.46-.808 3.784-.954a10.557 10.557 0 011.822-.058zM7.03 112.723c-1.059-.416-3.59-1.527-4.001-2.694-.314-.895.709-.459 1.286-.256.764.268 1.466.631 2.15 1.06 1.16.724 2.04 1.652 2.974 2.589-.815-.192-1.624-.392-2.409-.699zM30.928 12.206c-1.485-.57-2.578-1.812-2.564-3.512.019-2.166 2.01-3.666 3.93-4.167 2.525-.659 5.27.2 4.763 3.31-.436 2.685-2.536 4.891-5.347 3.799-.478-.185-.765.175-.782.57zm86.513 23.944c-1.491-3.317-5.781-4.516-8.897-2.754-2.388 1.347-3.95 5.08-2.79 7.722-3.148 3.144-5.79 6.367-9.847 8.708-4.189 2.416-8.683 3.473-13.342 4.399-.072-1.585-.298-3.144-.782-4.576 10.705-5.117 17.21-16.913 14.871-29.146C94.316 8.267 80.786-2.287 68.258.431a.633.633 0 00-.483-.077C53.33 3.331 41.725 15.976 43.7 31.434a23.476 23.476 0 001.087 4.639l-.226.174c-.783.905-1.58 1.81-2.389 2.706a1.19 1.19 0 00-.259-.624c-6.275-7.764-8.856-14.797-9.2-24.686 3.165.984 6.053-2.414 6.614-5.813.504-3.05-.865-6.099-5.587-5.982-3.445.088-7.235 2.338-7.745 6.002-.398 2.855 1.449 6.248 4.43 6.533-1.266 9.17 2.768 19.77 9.98 25.458.236.187.482.255.714.26-1.316 1.396-2.693 2.73-4.188 3.905-.697.55-.39 1.697.27 2.098 2.224 1.35 4.64 2.741 7.128 3.656-4.045 4.226-7.873 8.71-12.155 12.685-3.355 3.113-10.318 6.523-5.504 11.02.389.363.799.707 1.201 1.058-3.508 3.763-6.57 7.934-9.622 12.072-1.686 2.284-7.131 7.418-6.992 10.371.109 2.32 3.475 4.258 5.16 5.42.696.481 1.413.918 2.142 1.33-1.64 1.42-3.056 3.123-4.509 4.72-1.04 1.143-2.394 2.295-3.44 3.567-2.36-2.709-8.784-7.415-10.43-3.466-.902 2.162 1.813 4.093 3.371 5.042 1.928 1.176 4.28 1.971 6.556 1.744.271.101.588.104.916-.08 2.038-1.14 3.566-3.551 5.06-5.323 1.43-1.695 2.921-3.444 3.99-5.401a29.787 29.787 0 007.835 2.57c.36.066.667-.017.917-.173a.646.646 0 00.606-.178c2.653-2.664 5.375-5.769 7.411-8.938.625-.976-.801-2.072-1.598-1.236-2.322 2.436-4.445 5.398-6.275 8.293a1.205 1.205 0 00-.398-.184c-3.28-.82-6.44-1.881-9.327-3.691-1.332-.837-4.077-2.108-4.45-3.5-.402-1.511.797-2.472 1.992-4.134 4.198-5.84 8.605-11.65 12.072-17.97 9.18 7.577 21.396 12.015 33.164 13.844-2.783 7.484-4.848 15.706-6.719 23.513-4.322.11-9.98-.048-13.745-2.567-1.983-1.329-.776-2.852-.136-4.97.721-2.381 1.437-4.753 1.944-7.188 1.631.07 3.254-.18 4.752-.832.879-.381.448-1.922-.494-1.827-5.896.593-10.47-.404-14.44-5.17-.603-.725-1.725.205-1.278.99 1.9 3.34 5.64 5.863 9.585 6.619-1.184 2.798-2.129 5.693-3.065 8.584-.574 1.769-1.442 3.606.159 5.035 1.704 1.521 4.798 2.356 7.017 2.903-1.376 4.404-2.33 9.081-3.205 13.611a1.36 1.36 0 00.032.659c-.609.47-.81 1.514.057 2.008 2.75 1.569 13.672 5.11 13.284-1.232-.297-4.815-6.479-4.509-10.375-2.94.895-3.852 1.723-7.787 2.216-11.682 2.517.464 5.093.619 7.636.372.417.392 1.124.469 1.402-.176 3.382-7.843 6.524-16.89 7.77-25.373.99.125 1.978.237 2.956.325.595.054 1.351-.503 1.453-1.108a191.058 191.058 0 002.557-29.103c3.019.923 6.107 1.618 9.183 2.311.6.136 1.435-.179 1.54-.877.258-1.71.463-3.585.483-5.464 8.928.504 20.465-4.805 25.086-12.879 1.454 1.97 4.802 2.53 6.909 1.653 3.122-1.298 4.178-5.327 2.855-8.267z" fill="#8DD9E5"/></svg>
